X:41
T:Hieland Laddie (a)
M:2/4
L:1/16
Q:1/4=3D100
K:Cm
E2E2 FGG2|A2F2 G2G2|G2F2 F2E2  |G2F2 F2E2|
E2F2 G2G2|A2F2 G2G2|F2E2 CD=3DB,2|C2C2 C4  |
c4   B2GG|A2A2 G4  |G2F2 F2EF  |G2F2 F2E2|
c4   B2GG|A2A2 G3F |E2C2 D2B,2 |C2C2 C4  ||
